lib/brands/icons/google-shopping.svg

<svg xmlns="http://www.w3.org/2000/svg" fill="none" aria-hidden="true" viewBox="0 0 48 48"><g id="google-shopping-Icon"><g id="Group"><path id="path1029" fill="#EA4335" fill-rule="evenodd" d="M26.9594 6.00331C26.0738 6.00331 25.2314 6.34885 24.605 6.97513L16.7139 14.8577L19.8242 17.9675L24.8858 16.7005L29.7962 17.8523L32.9498 14.6993C32.1074 13.6771 32.1794 12.1798 33.1154 11.2439C34.0514 10.3081 35.549 10.2361 36.5713 11.0784L40.8481 6.80956C40.2361 6.29126 39.4585 6.00331 38.6593 6.00331H26.9594Z" clip-rule="evenodd"/><path id="path1211" fill="#4285F4" d="M40.8407 6.81676L36.5711 11.0856C37.4135 11.7766 37.7303 12.9212 37.3559 13.9434C36.9815 14.9657 36.0095 15.6495 34.9223 15.6423C34.1447 15.6423 33.4247 15.3112 32.9423 14.7065C32.9495 14.7137 32.9351 14.6993 32.9423 14.7065L28.068 19.6376L24.5976 17.9603L20.688 20.0335L19.5576 23.6545L20.688 27.7217L24.5976 29.471L30.4656 28.6287L33.1367 31.2995L41.0135 23.4169C41.6471 22.7978 42.0071 21.9484 41.9999 21.0629V9.35069C41.9999 8.37887 41.5751 7.45744 40.8407 6.81676Z"/><path id="path1433" fill="#FBBC05" d="M16.7136 14.8576L6.9865 24.583C6.3529 25.2093 6.00011 26.066 6.00011 26.9586C5.99291 27.844 6.3529 28.6935 6.9865 29.3126L12.6673 34.9923L19.1184 28.5423L17.9952 23.6472L19.824 17.9746L16.7136 14.8576Z"/><path id="path1584" fill="#34A853" fill-rule="evenodd" d="M12.667 34.9924L18.6862 41.0105C19.3126 41.6368 20.1549 41.9967 21.0405 41.9967C21.9333 41.9895 22.7829 41.6368 23.4165 41.0105L33.1365 31.2851L30.4653 28.6144L24.8781 30.2341L19.1038 28.5424L12.667 34.9924Z" clip-rule="evenodd"/><path id="path1508" fill="white" fill-rule="evenodd" d="M31.8267 22.2507H24.8787V25.231H28.8747C28.5003 27.1242 26.9451 28.2112 24.8787 28.2112C22.3587 28.1248 20.3859 26.0156 20.4723 23.4961C20.5515 21.0989 22.4811 19.1769 24.8787 19.0905C25.8867 19.0905 26.8587 19.4504 27.6219 20.1055L29.7891 17.8595C28.4499 16.6214 26.7003 15.9375 24.8787 15.9303C20.7459 15.9303 17.4268 19.3641 17.4268 23.6401C17.4268 27.9161 20.7459 31.3498 24.8787 31.3498C28.6083 31.3498 31.9923 28.5424 31.9923 23.6401C31.9851 23.1794 31.9275 22.7114 31.8267 22.2507Z" clip-rule="evenodd"/></g></g></svg>

<svg xmlns="http://www.w3.org/2000/svg" fill="none" aria-hidden="true" viewBox="0 0 48 48"><path fill="#EA4335" fill-rule="evenodd" d="M26.96 6.003c-.886 0-1.729.346-2.355.972l-7.891 7.883 3.11 3.11 5.062-1.267 4.91 1.151L32.95 14.7a2.574 2.574 0 0 1 .165-3.455 2.575 2.575 0 0 1 3.456-.166l4.277-4.268a3.394 3.394 0 0 0-2.189-.807h-11.7Z" clip-rule="evenodd"/><path fill="#4285F4" d="m40.84 6.817-4.269 4.269a2.558 2.558 0 0 1 .785 2.857 2.58 2.58 0 0 1-2.434 1.7 2.502 2.502 0 0 1-1.98-.937c.008.008-.007-.007 0 0l-4.874 4.932-3.47-1.678-3.91 2.073-1.13 3.621 1.13 4.068 3.91 1.749 5.868-.842 2.67 2.67 7.877-7.882A3.26 3.26 0 0 0 42 21.063V9.35c0-.972-.425-1.894-1.16-2.534Z"/><path fill="#FBBC05" d="m16.714 14.858-9.727 9.725A3.338 3.338 0 0 0 6 26.959a3.26 3.26 0 0 0 .987 2.354l5.68 5.68 6.451-6.45-1.123-4.896 1.829-5.672-3.11-3.117Z"/><path fill="#34A853" fill-rule="evenodd" d="m12.667 34.992 6.02 6.019a3.331 3.331 0 0 0 2.354.986 3.413 3.413 0 0 0 2.375-.986l9.72-9.726-2.67-2.67-5.588 1.62-5.774-1.693-6.437 6.45Z" clip-rule="evenodd"/><path fill="#fff" fill-rule="evenodd" d="M31.827 22.25h-6.948v2.981h3.996c-.375 1.893-1.93 2.98-3.996 2.98a4.562 4.562 0 0 1 0-9.12c1.008 0 1.98.36 2.743 1.014l2.167-2.245a7.266 7.266 0 0 0-4.91-1.93c-4.133 0-7.452 3.434-7.452 7.71s3.319 7.71 7.452 7.71c3.73 0 7.113-2.808 7.113-7.71a7.039 7.039 0 0 0-.165-1.39Z" clip-rule="evenodd"/></svg>
